icons/sign-language.svg

<svg width="24" height="24" viewBox="0 0 24 24" fill="none" xmlns="http://www.w3.org/2000/svg">
<path fill-rule="evenodd" clip-rule="evenodd" d="M18.6686 8.73739C19.4381 8.98449 20.875 9.92811 21.3025 10.431C21.73 10.9338 22.0044 11.8484 22.0044 13.1423C22.0044 14.4361 20.7861 15.9995 20.7861 16.8234C20.7861 17.3726 20.8836 18.3725 21.0788 19.8232C21.0788 20.3702 20.8375 20.693 20.3548 20.7915C19.8722 20.8901 19.5209 20.6469 19.301 20.0619L18.5974 16.4559L18.1024 20.8579C18.0271 21.628 17.6581 21.9971 16.9955 21.9652C16.3328 21.9332 16.0341 21.5291 16.0994 20.7529L16.444 16.4559L14.1379 21.4013C13.781 21.9766 13.3445 22.1375 12.8284 21.8839C12.3124 21.6303 12.1913 21.204 12.4653 20.6052L14.475 15.6748L11.5476 19.1431C11.1253 19.5228 10.7046 19.5536 10.2856 19.2355C9.86662 18.9175 9.77128 18.5263 9.9996 18.0619L14.2044 12.2745H12.4729C11.1005 12.3038 10.3114 12.0038 10.1055 11.3747C9.79659 10.431 10.6367 10.1945 11.1659 10.2524C11.5187 10.291 12.0214 10.3037 12.6741 10.2906C13.5578 10.2362 14.5315 9.93306 15.5952 9.38126C17.1909 8.55355 17.8992 8.4903 18.6686 8.73739ZM3.00202 15.5419C4 15.5419 4 16.5419 4 16.5419C4 17.653 5.00181 18.0419 5.5 18.0419C5.5 18.0419 6.5 18.0766 6.5 19.0593C6.5 20.0419 5.5 20.0419 5.5 20.0419C3.567 20.0419 2 18.4749 2 16.5419C2 16.5419 2.00404 15.5419 3.00202 15.5419ZM9.24717 2.93288L9.97185 8.20753L10.7729 3.74025C10.9488 3.20028 11.2977 2.96326 11.8196 3.02921C12.3415 3.09515 12.6197 3.38627 12.6541 3.90257C12.3495 6.80079 12.1972 8.24991 12.1972 8.24991C11.6475 8.20753 10.5476 8.12286 9.66246 8.56224C8.74336 9.01847 8.07485 10.0028 8.07485 10.9169C8.07485 12.5318 8.8701 13.5493 10.4606 13.9693C9.29593 15.589 8.71359 16.3989 8.71359 16.3989C7.94265 16.3979 7.08297 16.306 6.68097 16.1626C6.0593 15.9409 5.36438 15.286 4.71745 14.1655C4.07053 13.045 4.34397 11.0819 3.93205 10.3684C3.65744 9.89279 3.07295 9.07559 2.17858 7.91682C1.9051 7.44313 1.95271 7.04295 2.32143 6.71627C2.69015 6.38959 3.11596 6.42457 3.59888 6.82121L6.01118 9.59231L4.23885 5.53256C3.86766 4.74956 3.97699 4.20623 4.56685 3.90257C5.15671 3.5989 5.64312 3.83872 6.02607 4.62202L7.87608 8.51561L7.40055 3.07974C7.41221 2.40043 7.7049 2.04158 8.27861 2.00318C8.85232 1.96477 9.17518 2.27468 9.24717 2.93288ZM19.6856 5.0954C19.6856 5.0954 20.3898 5.80537 19.6841 6.51104C18.9785 7.21672 18.2714 6.50961 18.2714 6.50961C17.4857 5.72395 16.5023 6.15734 16.15 6.50961C16.15 6.50961 15.4184 7.19218 14.7236 6.49734C14.0287 5.80251 14.7358 5.0954 14.7358 5.0954C16.1027 3.72857 18.3187 3.72857 19.6856 5.0954Z" fill="#3A3A47"/>
</svg>

<svg xmlns="http://www.w3.org/2000/svg" width="24" height="24" viewBox="0 0 24 24">
    <path fill="#3A3A47" fill-rule="evenodd" d="M18.669 8.737c.77.247 2.206 1.191 2.634 1.694.427.503.701 1.417.701 2.711 0 1.294-1.218 2.858-1.218 3.681 0 .55.098 1.55.293 3 0 .547-.242.87-.724.969-.483.098-.834-.145-1.054-.73l-.704-3.606-.495 4.402c-.075.77-.444 1.14-1.107 1.107-.662-.032-.96-.436-.896-1.212l.345-4.297-2.306 4.945c-.357.576-.794.736-1.31.483-.516-.254-.637-.68-.363-1.279l2.01-4.93-2.927 3.468c-.423.38-.843.41-1.262.093-.42-.319-.515-.71-.286-1.174l4.204-5.787h-1.731c-1.372.029-2.162-.271-2.368-.9-.308-.944.532-1.18 1.06-1.123.354.039.856.052 1.51.039.883-.055 1.856-.358 2.92-.91 1.596-.827 2.304-.89 3.074-.644zM3.002 15.542c.998 0 .998 1 .998 1 0 1.111 1.002 1.5 1.5 1.5 0 0 1 .035 1 1.017 0 .983-1 .983-1 .983a3.5 3.5 0 0 1-3.5-3.5s.004-1 1.002-1zm6.245-12.61l.725 5.276.8-4.468c.177-.54.526-.777 1.048-.71.522.065.8.356.834.873l-.457 4.347c-.55-.042-1.65-.127-2.535.312-.919.456-1.587 1.44-1.587 2.355 0 1.615.795 2.632 2.386 3.052L8.714 16.4c-.771-.001-1.631-.093-2.033-.236-.622-.222-1.317-.877-1.964-1.997-.646-1.121-.373-3.084-.785-3.798-.275-.475-.86-1.292-1.753-2.451-.274-.474-.226-.874.142-1.2.37-.327.795-.292 1.278.104L6.01 9.592 4.24 5.532c-.371-.782-.262-1.326.328-1.63.59-.303 1.076-.063 1.46.72l1.85 3.894L7.4 3.08c.011-.68.304-1.038.878-1.077.573-.038.896.272.968.93zm10.439 2.163s.704.71-.002 1.416-1.413-.001-1.413-.001c-.785-.786-1.769-.353-2.121 0 0 0-.732.682-1.426-.013-.695-.694.012-1.402.012-1.402a3.5 3.5 0 0 1 4.95 0z"/>
</svg>
